X: 11
T:Old Woman Tossed Up, Bledington 1
M:6/8
L:1/8
S:CJS (Bond)
A:Bledington
P:A(AB)4
K:G
P:A
|:D|GAB c2d|edc BAG|ABc d2c|BAG G2:|
P:B
|:g|efg efg|efg fed|Bcd def|gfe d2B|
GAB c2d|edc BAG|ABc d2c|BAG G2:|

